airchina.svg

<svg viewBox="0 0 24 24" xmlns="http://www.w3.org/2000/svg"><path d="M17.2773877,10.0310726 C19.4462818,10.0310726 20.4779693,11.9799675 20.4779693,13.2215652 C20.4779693,14.0140252 20.1646174,15.5989451 18.675068,15.5989451 C17.4849834,15.5989451 16.7245708,14.389098 17.1000293,13.3984192 C17.0165489,13.7323349 17.1933999,14.0555681 17.5482769,14.0555681 C17.8920739,14.0555681 18.0800257,13.7323349 18.0178894,13.3256301 C18.0178894,13.2425473 17.9130471,12.492013 17.0786348,12.492013 C16.379943,12.492013 16.1508637,13.127797 16.1508637,13.4403478 L16.1508637,17.6326171 C16.1508637,22.1159833 11.2710598,25.4314013 6.70342099,23.377403 C10.1343875,24.3368356 14.0655302,21.9282095 14.0655302,17.9343074 L14.0655302,13.2215652 C14.0655302,11.8451312 15.2120838,10.0310726 17.2773877,10.0310726 Z M21.6872527,3.35729913 C21.7185078,3.65916744 21.4166365,6.91218209 17.902697,7.84036856 C17.1830261,8.02869131 13.3252659,7.65323276 13.3252659,12.1160204 L13.3252659,17.4955256 C13.3252659,18.6215155 13.0538604,20.613615 10.947886,22.0216216 C8.77899194,23.460548 5.26482099,23.2306973 3.46111847,19.9884541 L3.47662324,20.0034985 C3.68222089,20.201438 5.90981648,22.2398446 8.80026782,20.5615974 C10.7496041,19.4301763 10.8691684,17.1143298 10.8747376,16.9706943 L10.8747123,11.479846 C10.8779773,11.0953925 10.9894043,8.65194387 13.2412899,6.85986775 C14.9516397,5.51509528 16.5362332,5.60847773 17.6311846,5.47316665 C20.4362484,5.12856853 21.6872527,3.35729913 21.6872527,3.35729913 Z M22.9071591,0 C22.9071591,0 21.9378452,3.79523816 17.548722,4.70265319 C16.7451939,4.86961103 14.3258853,4.58791771 12.0528967,6.95501873 C10.2488084,8.83192572 10.0620436,10.563314 10.0620436,12.8460948 L10.0620436,16.8816882 C10.0620436,18.6438478 8.64368086,20.4264821 6.47451977,20.4264821 C4.37921596,20.4264821 2.90865761,18.7580907 2.90865761,16.8816882 L2.90865761,10.0312685 C2.90865761,9.46827351 2.50195289,8.95711813 1.85548644,8.95711813 L1,8.95711813 L1,8.75837703 L3.80506379,8.75837703 C3.80506379,8.25867562 4.23274766,7.28820444 5.32787713,7.28820444 C5.75475982,7.28820444 5.8279643,7.38276195 6.37986136,7.26763181 C7.09953229,7.02866831 7.42353702,6.61048291 7.56914479,6.27736842 C7.56914479,6.27736842 7.85044345,7.46585066 6.72407374,8.09136763 C6.08828974,8.43558001 5.10867913,8.1649549 5.10867913,8.1649549 C5.10867913,8.1649549 4.31583341,8.04982476 4.21215426,8.75842451 C4.66001611,8.75842451 5.35909363,9.20708753 5.35909363,9.97895411 L5.35909363,16.5065263 C5.35909363,16.9749519 5.73416643,17.4651578 6.30704264,17.4651578 C6.81861345,17.4651578 7.25736553,17.0588388 7.25736553,16.5065263 L7.25736553,11.928205 C7.25736553,5.17155353 12.5122422,2.36770636 15.5665335,2.13803362 C18.1002037,1.94931622 19.8110282,2.17878421 22.9071591,0 Z" fill="#E60816"></path></svg>

<svg viewBox="0 0 24 24" xmlns="http://www.w3.org/2000/svg"><path d="M17.277 10.031c2.17 0 3.201 1.949 3.201 3.19 0 .793-.313 2.378-1.803 2.378-1.19 0-1.95-1.21-1.575-2.2-.083.333.093.657.448.657.344 0 .532-.324.47-.73 0-.083-.105-.834-.94-.834-.698 0-.927.636-.927.948v4.193c0 4.483-4.88 7.798-9.448 5.744 3.431.96 7.363-1.449 7.363-5.443v-4.712c0-1.377 1.146-3.19 3.211-3.19Zm4.41-6.674c.032.302-.27 3.555-3.784 4.483-.72.189-4.578-.187-4.578 4.276v5.38c0 1.126-.271 3.118-2.377 4.526-2.169 1.439-5.683 1.209-7.487-2.034l.016.015c.205.198 2.433 2.237 5.323.559 1.95-1.132 2.07-3.448 2.075-3.591V11.48c.003-.385.114-2.828 2.366-4.62 1.71-1.345 3.295-1.252 4.39-1.387 2.805-.344 4.056-2.116 4.056-2.116ZM22.907 0s-.97 3.795-5.358 4.703c-.804.167-3.223-.115-5.496 2.252-1.804 1.877-1.991 3.608-1.991 5.891v4.036c0 1.762-1.418 3.544-3.587 3.544-2.096 0-3.566-1.668-3.566-3.544v-6.85c0-.564-.407-1.075-1.054-1.075H1v-.199h2.805c0-.5.428-1.47 1.523-1.47.427 0 .5.095 1.052-.02.72-.24 1.044-.658 1.19-.99 0 0 .28 1.188-.846 1.813-.636.345-1.615.074-1.615.074s-.793-.115-.897.593c.448 0 1.147.45 1.147 1.221v6.528c0 .468.375.958.948.958.512 0 .95-.406.95-.958v-4.579c0-6.756 5.255-9.56 8.31-9.79 2.533-.189 4.244.04 7.34-2.138Z" fill="#E60816"/></svg>
